X: 154
M: 3/4
L: 1/8
K: Bm
(B>c) | d3 c B2 | c3 B A2 | (EF) A2 (A>B) |
(e2 c2) a2 | A4 (Bc) | d2 (ed) (cB) |
(c2 Hf3) A | F2 B2 (Bc) | B4 ][ bc' |
d'3 c' b2 | c'3 b a | (ef) a2 (ab) | a4 (bc') |
d'3 c' b2 | c'3 b a2 | f2 b2 (bc') | b4 (Bc) |
d3 e (fg) | a3 ^g f2 | e2 c2 a2 |

